X: 43538
T: You Rogue You Dar'n't Meddle Me
R: reel
M: 4/4
K: Adorian
AB|cABG AGEF|GABc dBGB|cABG AGED|EAAB A2:|
E2|ABcd e2ef|gefd ecAG|ABcd e2ed|eaag a2a2|
ABcd e2ef|gefd ecAB|cABG AGED|EAAB A2||

